X:1089
T:Waiting for Fish
R:Waltz
C:\251Susie Secco 1996
S:Colin Hume's website,  colinhume.com  - chords can also be printed below the stave.
N:For the dance "Westward Bound" by Philippe Callens.
Q:1/4=123
%%MIDI bassprog 42      % Cello
%%MIDI chordprog 45     % Pizzicato Strings
%%MIDI program 71       % Clarinet
M:3/4
K:Dm
P:A
|: DF | "Dm"A2 AB AF | D4 F2 | "Gm"G2GB AG | "Dm"AF D2E2 |
"Dm"F2FA FD | "C"E2 EG EC |1 "Bb"DE D2C2 | "A"A,4 :|2 "Bb"DE G2 "Am"A2 | "Dm"d3 ||
P:B
|: A de | "Dm"f2 fa ge | "C"e3g fe | "Bb"de d2 "A"^c2 | A4 AB |
"F"cd cB A2 | "C"GA GF E2 | "Dm"D2E2 "C"C2 | "Dm"D3 :|

